X: 1
T: Gigue du diamant bleu
O: trad Qu\'ebec
R: reel
Z: 2010 John Chambers <jc:trillian.mit.edu>
S: From Pascal Gemma's blog
M: C|
L: 1/8
K: D
   ag | "D"fded fdef | "G"gbaf    "A7"e2ag    | "D"fded fdef | "G"gb"A7"af "D"d2 :|
|: Ad | "D"f2ed fded | "G"Bd"D"Ad  "G"Bd"D"Ad | "D"f2ed f2ed | "A7"cABc       d2 :|
(3ABc | "D"dcdA FAFA | "G"GBGB     "D"FAFA    | "D"dcdA FAFA | "A7"GABc    "D"d2 ||
(3ABc | "D"dcdA FAFA | "G"GD[BB,]D "D"FAFA    | "D"dcdA FAFA | "A7"GABc    "D"d2 |]
